svg/emoji_u1f9cb.svg

<?xml version="1.0" encoding="utf-8"?>
<!-- Generator: Adobe Illustrator 25.2.3, SVG Export Plug-In . SVG Version: 6.00 Build 0)  -->
<svg version="1.1" id="Layer_2" xmlns="http://www.w3.org/2000/svg" xmlns:xlink="http://www.w3.org/1999/xlink" x="0" y="0"
	 viewBox="0 0 128 128" style="enable-background:new 0 0 128 128;" xml:space="preserve">
<g>
	<path style="opacity:0.85;fill:#BAE2FD;" d="M63.93,25.32c-34.12,0.31-37.92,9.54-37.92,9.54s9.7,68.61,10.71,75.34
		c1.01,6.73,12.54,13.51,27.21,13.51s26.2-6.79,27.21-13.51c1.01-6.73,10.83-74.88,10.83-74.88S98.05,25.63,63.93,25.32z"/>
	<linearGradient id="SVGID_1_" gradientUnits="userSpaceOnUse" x1="63.8497" y1="71.2793" x2="63.8497" y2="93.5277">
		<stop  offset="0" style="stop-color:#EEB68E"/>
		<stop  offset="1" style="stop-color:#F5CEA7"/>
	</linearGradient>
	<path style="fill:url(#SVGID_1_);" d="M30.3,64.3c2.61,18.75,5.83,41.86,6.43,45.89c1.01,6.73,12.54,13.51,27.21,13.51
		s26.2-6.79,27.21-13.51c0.59-3.95,3.68-26.07,6.26-44.66c0,0-24.45-9.08-39.2-7.27C43.46,60.06,30.3,64.3,30.3,64.3z"/>
	
		<radialGradient id="SVGID_2_" cx="50.2002" cy="68.1062" r="67.1014" gradientTransform="matrix(0.9469 0.3217 -0.2221 0.6538 17.7938 7.4336)" gradientUnits="userSpaceOnUse">
		<stop  offset="0" style="stop-color:#C48C63"/>
		<stop  offset="1" style="stop-color:#EEB68E"/>
	</radialGradient>
	<path style="fill:url(#SVGID_2_);" d="M97.22,64.04c1.81,4.57-7.43,19.27-33.89,8.04C38.24,61.42,30.3,64.3,30.3,64.3
		c3.68-3.67,11.07-8.7,29.26-8.7C80.19,55.6,95.04,58.52,97.22,64.04z"/>
	<path style="fill:#9575CD;" d="M70.5,38.41c-2.3,8.03-8.97,29.65-8.97,29.65s2.94,2.3,7.83,2.31c5.33,0,6.17-2.09,6.17-2.09
		s6.55-21.27,8.78-29.18c0,0-2.12,0.37-7.41,0.33C71.59,39.4,70.5,38.41,70.5,38.41z"/>
	<g>
		
			<radialGradient id="SVGID_3_" cx="86.0554" cy="82.9066" r="5.6683" gradientTransform="matrix(1 0 0 0.9699 0 3.7508)" gradientUnits="userSpaceOnUse">
			<stop  offset="0" style="stop-color:#6D4C41"/>
			<stop  offset="0.9985" style="stop-color:#3D3832"/>
		</radialGradient>
		<ellipse style="fill:url(#SVGID_3_);" cx="84.92" cy="86.88" rx="4.76" ry="4.61"/>
		
			<radialGradient id="SVGID_4_" cx="70.2894" cy="81.5745" r="5.6683" gradientTransform="matrix(1 0 0 0.9699 0 3.7508)" gradientUnits="userSpaceOnUse">
			<stop  offset="0" style="stop-color:#6D4C41"/>
			<stop  offset="0.9985" style="stop-color:#3D3832"/>
		</radialGradient>
		<ellipse style="fill:url(#SVGID_4_);" cx="69.16" cy="85.58" rx="4.76" ry="4.61"/>
		
			<radialGradient id="SVGID_5_" cx="60.7762" cy="102.5771" r="5.6683" gradientTransform="matrix(1 0 0 0.9699 0 3.7508)" gradientUnits="userSpaceOnUse">
			<stop  offset="0" style="stop-color:#6D4C41"/>
			<stop  offset="0.9985" style="stop-color:#3D3832"/>
		</radialGradient>
		<ellipse style="fill:url(#SVGID_5_);" cx="59.64" cy="105.96" rx="4.76" ry="4.61"/>
		
			<radialGradient id="SVGID_6_" cx="74.4243" cy="101.8962" r="5.6683" gradientTransform="matrix(1 0 0 0.9699 0 3.7508)" gradientUnits="userSpaceOnUse">
			<stop  offset="0" style="stop-color:#6D4C41"/>
			<stop  offset="0.9985" style="stop-color:#3D3832"/>
		</radialGradient>
		<ellipse style="fill:url(#SVGID_6_);" cx="73.29" cy="105.3" rx="4.76" ry="4.61"/>
		
			<radialGradient id="SVGID_7_" cx="73.9362" cy="104.4522" r="5.638" gradientTransform="matrix(1 0 0 0.9699 0 3.7508)" gradientUnits="userSpaceOnUse">
			<stop  offset="0.5279" style="stop-color:#F5CEA7;stop-opacity:0"/>
			<stop  offset="1" style="stop-color:#F5CEA7"/>
		</radialGradient>
		<ellipse style="fill:url(#SVGID_7_);" cx="73.29" cy="105.3" rx="4.76" ry="4.61"/>
		
			<radialGradient id="SVGID_8_" cx="69.4235" cy="84.2387" r="5.6683" gradientTransform="matrix(1 0 0 0.9699 0 3.7508)" gradientUnits="userSpaceOnUse">
			<stop  offset="0.5669" style="stop-color:#F5CEA7;stop-opacity:0"/>
			<stop  offset="1" style="stop-color:#F5CEA7"/>
		</radialGradient>
		<ellipse style="fill:url(#SVGID_8_);" cx="69.16" cy="85.58" rx="4.76" ry="4.61"/>
		
			<radialGradient id="SVGID_9_" cx="85.1895" cy="85.5708" r="5.6683" gradientTransform="matrix(1 0 0 0.9699 0 3.7508)" gradientUnits="userSpaceOnUse">
			<stop  offset="0.5669" style="stop-color:#F5CEA7;stop-opacity:0"/>
			<stop  offset="1" style="stop-color:#F5CEA7"/>
		</radialGradient>
		<ellipse style="fill:url(#SVGID_9_);" cx="84.92" cy="86.88" rx="4.76" ry="4.61"/>
		
			<radialGradient id="SVGID_10_" cx="44.2861" cy="102.1174" r="5.2197" gradientTransform="matrix(1 0 0 0.9699 0 3.7508)" gradientUnits="userSpaceOnUse">
			<stop  offset="0" style="stop-color:#6D4C41"/>
			<stop  offset="0.9985" style="stop-color:#3D3832"/>
		</radialGradient>
		<ellipse style="fill:url(#SVGID_10_);" cx="43.24" cy="105.3" rx="4.38" ry="4.25"/>
		
			<radialGradient id="SVGID_11_" cx="43.3657" cy="104.2201" r="5.5218" gradientTransform="matrix(1 0 0 0.9179 0 9.179)" gradientUnits="userSpaceOnUse">
			<stop  offset="0.5669" style="stop-color:#F5CEA7;stop-opacity:0"/>
			<stop  offset="1" style="stop-color:#F5CEA7"/>
		</radialGradient>
		<ellipse style="fill:url(#SVGID_11_);" cx="43.24" cy="105.3" rx="4.38" ry="4.25"/>
		
			<radialGradient id="SVGID_12_" cx="83.4713" cy="108.5005" r="5.2197" gradientTransform="matrix(1 0 0 0.9699 0 3.7508)" gradientUnits="userSpaceOnUse">
			<stop  offset="0" style="stop-color:#6D4C41"/>
			<stop  offset="0.9985" style="stop-color:#3D3832"/>
		</radialGradient>
		<ellipse style="fill:url(#SVGID_12_);" cx="82.43" cy="111.49" rx="4.38" ry="4.25"/>
		
			<radialGradient id="SVGID_13_" cx="82.5509" cy="110.6033" r="5.5218" gradientTransform="matrix(1 0 0 0.9179 0 9.5115)" gradientUnits="userSpaceOnUse">
			<stop  offset="0.5669" style="stop-color:#F5CEA7;stop-opacity:0"/>
			<stop  offset="1" style="stop-color:#F5CEA7"/>
		</radialGradient>
		<ellipse style="fill:url(#SVGID_13_);" cx="82.43" cy="111.49" rx="4.38" ry="4.25"/>
		
			<radialGradient id="SVGID_14_" cx="59.5681" cy="105.6612" r="6.0382" gradientTransform="matrix(1 0 0 0.9179 0 9.2541)" gradientUnits="userSpaceOnUse">
			<stop  offset="0.5669" style="stop-color:#F5CEA7;stop-opacity:0"/>
			<stop  offset="1" style="stop-color:#F5CEA7"/>
		</radialGradient>
		<path style="fill:url(#SVGID_14_);" d="M54.84,105.96c0-2.55,1.94-4.46,4.56-4.61c2.61-0.15,5.04,1.81,5.04,4.36
			c0,2.55-1.64,5-4.85,4.87C56.97,110.46,54.84,108.5,54.84,105.96z"/>
		
			<radialGradient id="SVGID_15_" cx="66.8537" cy="114.0965" r="5.6683" gradientTransform="matrix(1 0 0 0.9699 0 3.7508)" gradientUnits="userSpaceOnUse">
			<stop  offset="0" style="stop-color:#6D4C41"/>
			<stop  offset="0.9985" style="stop-color:#3D3832"/>
		</radialGradient>
		<ellipse style="fill:url(#SVGID_15_);" cx="65.72" cy="117.13" rx="4.76" ry="4.61"/>
		
			<radialGradient id="SVGID_16_" cx="65.6455" cy="117.1806" r="5.7853" gradientTransform="matrix(1 0 0 0.9284 0 8.6158)" gradientUnits="userSpaceOnUse">
			<stop  offset="0.5669" style="stop-color:#F5CEA7;stop-opacity:0"/>
			<stop  offset="1" style="stop-color:#F5CEA7"/>
		</radialGradient>
		<path style="fill:url(#SVGID_16_);" d="M60.92,117.13c0-2.55,1.94-4.46,4.56-4.61c2.61-0.15,5.04,1.81,5.04,4.36
			c0,2.55-1.64,5-4.85,4.87C63.05,121.64,60.92,119.68,60.92,117.13z"/>
		
			<radialGradient id="SVGID_17_" cx="53.4024" cy="93.7173" r="5.6683" gradientTransform="matrix(1 0 0 0.9699 0 3.7508)" gradientUnits="userSpaceOnUse">
			<stop  offset="0" style="stop-color:#6D4C41"/>
			<stop  offset="0.9985" style="stop-color:#3D3832"/>
		</radialGradient>
		<ellipse style="fill:url(#SVGID_17_);" cx="52.27" cy="97.36" rx="4.76" ry="4.61"/>
		
			<radialGradient id="SVGID_18_" cx="52.1942" cy="96.8014" r="6.0382" gradientTransform="matrix(1 0 0 0.9179 0 8.7926)" gradientUnits="userSpaceOnUse">
			<stop  offset="0.5669" style="stop-color:#F5CEA7;stop-opacity:0"/>
			<stop  offset="1" style="stop-color:#F5CEA7"/>
		</radialGradient>
		<path style="fill:url(#SVGID_18_);" d="M47.47,97.36c0-2.55,1.94-4.46,4.56-4.61c2.61-0.15,5.04,1.81,5.04,4.36s-1.64,5-4.85,4.87
			C49.6,101.87,47.47,99.91,47.47,97.36z"/>
		
			<radialGradient id="SVGID_19_" cx="65.5328" cy="91.9597" r="5.6683" gradientTransform="matrix(1 0 0 0.9699 0 3.7508)" gradientUnits="userSpaceOnUse">
			<stop  offset="0" style="stop-color:#6D4C41"/>
			<stop  offset="0.9985" style="stop-color:#3D3832"/>
		</radialGradient>
		<ellipse style="fill:url(#SVGID_19_);" cx="64.4" cy="95.66" rx="4.76" ry="4.61"/>
		
			<radialGradient id="SVGID_20_" cx="64.3246" cy="95.0439" r="5.725" gradientTransform="matrix(1 0 0 0.9565 0 5.0322)" gradientUnits="userSpaceOnUse">
			<stop  offset="0.5669" style="stop-color:#F5CEA7;stop-opacity:0"/>
			<stop  offset="1" style="stop-color:#F5CEA7"/>
		</radialGradient>
		<path style="fill:url(#SVGID_20_);" d="M59.6,95.66c0-2.55,1.94-4.46,4.56-4.61c2.61-0.15,5.04,1.81,5.04,4.36s-1.64,5-4.85,4.87
			C61.73,100.16,59.6,98.21,59.6,95.66z"/>
		
			<radialGradient id="SVGID_21_" cx="80.0972" cy="95.9071" r="5.6683" gradientTransform="matrix(1 0 0 0.9699 0 3.7508)" gradientUnits="userSpaceOnUse">
			<stop  offset="0" style="stop-color:#6D4C41"/>
			<stop  offset="0.9985" style="stop-color:#3D3832"/>
		</radialGradient>
		<ellipse style="fill:url(#SVGID_21_);" cx="78.96" cy="99.49" rx="4.76" ry="4.61"/>
		
			<radialGradient id="SVGID_22_" cx="78.7001" cy="98.3421" r="5.928" gradientTransform="matrix(1 0 0 0.9179 0 8.8729)" gradientUnits="userSpaceOnUse">
			<stop  offset="0.5067" style="stop-color:#F5CEA7;stop-opacity:0"/>
			<stop  offset="1" style="stop-color:#F5CEA7"/>
		</radialGradient>
		<path style="fill:url(#SVGID_22_);" d="M74.16,99.49c0-2.55,1.94-4.46,4.56-4.61c2.61-0.15,5.04,1.81,5.04,4.36s-1.64,5-4.85,4.87
			C76.29,103.99,74.16,102.04,74.16,99.49z"/>
		
			<radialGradient id="SVGID_23_" cx="43.9544" cy="85.4165" r="5.6683" gradientTransform="matrix(1 0 0 0.9699 0 3.7508)" gradientUnits="userSpaceOnUse">
			<stop  offset="0" style="stop-color:#6D4C41"/>
			<stop  offset="0.9985" style="stop-color:#3D3832"/>
		</radialGradient>
		<ellipse style="fill:url(#SVGID_23_);" cx="42.82" cy="89.31" rx="4.76" ry="4.61"/>
		
			<radialGradient id="SVGID_24_" cx="42.7462" cy="88.5007" r="6.0382" gradientTransform="matrix(1 0 0 0.9681 0 3.9157)" gradientUnits="userSpaceOnUse">
			<stop  offset="0.5669" style="stop-color:#F5CEA7;stop-opacity:0"/>
			<stop  offset="1" style="stop-color:#F5CEA7"/>
		</radialGradient>
		<path style="fill:url(#SVGID_24_);" d="M38.02,89.31c0-2.55,1.94-4.46,4.56-4.61c2.61-0.15,5.04,1.81,5.04,4.36s-1.64,5-4.85,4.87
			C40.15,93.82,38.02,91.86,38.02,89.31z"/>
		
			<radialGradient id="SVGID_25_" cx="52.7571" cy="111.0396" r="5.6683" gradientTransform="matrix(1 0 0 0.9699 0 3.7508)" gradientUnits="userSpaceOnUse">
			<stop  offset="0" style="stop-color:#6D4C41"/>
			<stop  offset="0.9985" style="stop-color:#3D3832"/>
		</radialGradient>
		<ellipse style="fill:url(#SVGID_25_);" cx="51.62" cy="114.16" rx="4.76" ry="4.61"/>
		
			<radialGradient id="SVGID_26_" cx="51.5489" cy="114.4483" r="5.9848" gradientTransform="matrix(1 0 0 0.9702 0 3.7243)" gradientUnits="userSpaceOnUse">
			<stop  offset="0.5669" style="stop-color:#F5CEA7;stop-opacity:0"/>
			<stop  offset="1" style="stop-color:#F5CEA7"/>
		</radialGradient>
		<path style="fill:url(#SVGID_26_);" d="M46.82,114.17c0-2.55,1.94-4.46,4.56-4.61c2.61-0.15,5.04,1.81,5.04,4.36
			s-1.64,5-4.85,4.87C48.95,118.67,46.82,116.71,46.82,114.17z"/>
	</g>
	<path style="fill:none;stroke:#FFD9C2;stroke-width:8.0596;stroke-linecap:round;stroke-miterlimit:10;" d="M89.15,64.83"/>
	<path style="fill:#33AC71;" d="M101.31,40.11c0.16-0.93,1.09-3.65,0.52-5.62c0,0-2.08,9.1-37.83,9.1s-38.01-9-38.01-9
		c-0.21,1.81,0.55,4.58,0.7,5.52c0.51,3.05-1.66,3.01-1.66,3.01s0.35,3.34,6.35,2.73c1.1-0.11,3.97-0.76,5.52,1
		c1.48,1.68,2.77,3.23,5.32,4.01c3.64,1.1,6.46-1.71,10.94-0.75c2.76,0.59,4.52,2.3,9.23,2.8c5.21,0.56,7-2.19,9.8-2.6
		c5.06-0.74,6.76,1.14,10.94,1.02c4.82-0.13,6.4-2.45,8.24-3.71c2.72-1.86,4.97-0.71,6.08-0.6c6,0.62,5.53-3.88,5.53-3.88
		S100.8,43.15,101.31,40.11z"/>
	<path style="fill:#72E6AC;" d="M63.92,23.35c-21.49,0-37.91,5.15-37.91,11.5s16.41,11.5,37.91,11.5s37.91-5.15,37.91-11.5
		S85.41,23.35,63.92,23.35z M76.76,38.64c-4.76,0-8.61-1.38-8.61-3.07c0-1.7,3.86-3.07,8.61-3.07s8.61,1.38,8.61,3.07
		C85.37,37.27,81.51,38.64,76.76,38.64z"/>
	<path style="fill:#B39DDB;" d="M87.81,4.7c-3.95-1.06-7.16,0.05-8.06,2.61c0,0-9.07,30.52-9.07,30.52s1.85,0.96,7.42,0.96
		c4.55,0,7.03-2.25,7.03-2.25s7.07-25,7.36-25.98C93.17,8.32,91.26,5.63,87.81,4.7z"/>
	<path style="fill:#9575CD;" d="M78.1,38.79c4.55,0,7.03-2.25,7.03-2.25l1.1-3.89c0,0-3.83,2.92-7.91,3.87
		c-4.38,1.02-7.64,1.31-7.64,1.31S72.53,38.79,78.1,38.79z"/>
	
		<ellipse transform="matrix(0.2658 -0.964 0.964 0.2658 54.577 89.8299)" style="fill:#7E57C2;" cx="86.26" cy="9.08" rx="3.5" ry="5.16"/>
	<path style="fill:#33AC71;" d="M71.73,34.3l0.45-1.51c-0.59,0.16-1.22,0.36-1.83,0.62c-1.32,0.55-2.03,1.02-2.21,1.97
		c-0.15,0.8,0.63,1.4,0.63,1.4s-0.04-0.67,0.33-1.05C69.86,34.94,70.3,34.77,71.73,34.3z"/>
	<path style="opacity:0.79;fill:#FFFFFF;" d="M33.33,57.21c-0.86-6.66,5.83-7.34,6.93,5.14l0.4,13.92c0,0,0.52,3.99-1.44,4.42
		c-2.93,0.64-3.26-3.68-3.26-3.68S34,62.34,33.33,57.21z"/>
</g>
</svg>

<?xml version="1.0" encoding="UTF-8" standalone="no"?>
<!DOCTYPE svg PUBLIC "-//W3C//DTD SVG 1.1//EN" "http://www.w3.org/Graphics/SVG/1.1/DTD/svg11.dtd">
<svg width="100%" height="100%" viewBox="0 0 128 128" version="1.1" xmlns="http://www.w3.org/2000/svg" xmlns:xlink="http://www.w3.org/1999/xlink" xml:space="preserve" xmlns:serif="http://www.serif.com/" style="fill-rule:evenodd;clip-rule:evenodd;stroke-linejoin:round;stroke-miterlimit:2;">
    <g>
        <path d="M63.94,25.32C29.82,25.63 26.02,34.86 26.02,34.86C26.02,34.86 35.72,103.47 36.73,110.2C37.74,116.93 49.27,123.71 63.94,123.71C78.61,123.71 90.14,116.92 91.15,110.2C92.16,103.47 101.98,35.32 101.98,35.32C101.98,35.32 98.06,25.63 63.94,25.32Z" style="fill:rgb(213,241,253);fill-rule:nonzero;"/>
        <path d="M30.3,64.3C32.91,83.05 36.13,106.16 36.73,110.19C37.74,116.92 49.27,123.7 63.94,123.7C78.61,123.7 90.14,116.91 91.15,110.19C91.74,106.24 94.83,84.12 97.41,65.53C97.41,65.53 72.96,56.45 58.21,58.26C43.47,60.06 30.3,64.3 30.3,64.3Z" style="fill:rgb(244,208,182);fill-rule:nonzero;"/>
        <path d="M97.23,64.04C99.04,68.61 89.8,83.31 63.34,72.08C38.24,61.42 30.3,64.3 30.3,64.3C33.98,60.63 41.37,55.6 59.56,55.6C80.2,55.6 95.04,58.52 97.23,64.04Z" style="fill:rgb(196,140,99);fill-rule:nonzero;"/>
        <path d="M70.5,38.41C68.2,46.44 61.53,68.06 61.53,68.06C61.53,68.06 64.47,70.36 69.36,70.37C74.69,70.37 75.53,68.28 75.53,68.28C75.53,68.28 82.08,47.01 84.31,39.1C84.31,39.1 82.19,39.47 76.9,39.43C71.6,39.4 70.5,38.41 70.5,38.41Z" style="fill:rgb(149,117,205);fill-rule:nonzero;"/>
        <g>
            <ellipse cx="84.93" cy="86.88" rx="4.76" ry="4.61" style="fill:rgb(99,61,33);"/>
            <ellipse cx="69.16" cy="85.58" rx="4.76" ry="4.61" style="fill:rgb(99,61,33);"/>
            <ellipse cx="59.65" cy="105.96" rx="4.76" ry="4.61" style="fill:rgb(99,61,33);"/>
            <g transform="matrix(1,0,0,1,-1.3274,2.02299)">
                <ellipse cx="73.3" cy="105.3" rx="4.76" ry="4.61" style="fill:rgb(99,61,33);"/>
            </g>
            <ellipse cx="43.25" cy="105.3" rx="4.38" ry="4.25" style="fill:rgb(99,61,33);"/>
            <ellipse cx="82.43" cy="111.49" rx="4.38" ry="4.25" style="fill:rgb(99,61,33);"/>
            <ellipse cx="65.73" cy="117.13" rx="4.76" ry="4.61" style="fill:rgb(99,61,33);"/>
            <ellipse cx="52.27" cy="97.36" rx="4.76" ry="4.61" style="fill:rgb(99,61,33);"/>
            <ellipse cx="64.4" cy="95.66" rx="4.76" ry="4.61" style="fill:rgb(99,61,33);"/>
            <ellipse cx="78.97" cy="99.49" rx="4.76" ry="4.61" style="fill:rgb(99,61,33);"/>
            <ellipse cx="42.83" cy="89.31" rx="4.76" ry="4.61" style="fill:rgb(99,61,33);"/>
            <ellipse cx="51.63" cy="114.16" rx="4.76" ry="4.61" style="fill:rgb(99,61,33);"/>
        </g>
        <path d="M101.31,40.11C101.47,39.18 102.23,36.4 102.01,34.59C102.01,34.59 101.48,32.14 99.72,32.83C93.72,35.17 78.38,43.26 64,43.59C49.14,43.25 33.17,34.79 27.59,32.58C26.18,32.02 25.99,34.59 25.99,34.59C25.78,36.4 26.54,39.17 26.69,40.11C27.2,43.16 25.03,43.12 25.03,43.12C25.03,43.12 25.38,46.46 31.38,45.85C32.48,45.74 36.29,45.46 39.57,47.87C41.37,49.19 42.62,50.95 46.89,50.7C48.03,50.63 49.07,50.02 50.17,49.7C51.94,49.17 53.86,49.22 55.61,49.83C57.24,50.4 58.69,51.43 60.32,51.98C61.46,52.36 62.7,52.52 64,52.52C65.3,52.52 66.55,52.36 67.68,51.98C69.31,51.43 70.77,50.4 72.39,49.83C74.14,49.22 76.06,49.18 77.83,49.7C78.93,50.03 79.97,50.64 81.11,50.7C85.38,50.95 86.63,49.19 88.43,47.87C91.71,45.46 95.52,45.74 96.62,45.85C102.62,46.47 102.97,43.12 102.97,43.12C102.97,43.12 100.8,43.15 101.31,40.11Z" style="fill:rgb(51,172,113);fill-rule:nonzero;"/>
        <path d="M63.92,23.35C42.43,23.35 26.01,28.5 26.01,34.85C26.01,41.2 42.42,46.35 63.92,46.35C85.42,46.35 101.83,41.2 101.83,34.85C101.83,28.5 85.42,23.35 63.92,23.35ZM76.76,38.64C72,38.64 68.15,37.26 68.15,35.57C68.15,33.87 72.01,32.5 76.76,32.5C81.52,32.5 85.37,33.88 85.37,35.57C85.37,37.27 81.52,38.64 76.76,38.64Z" style="fill:rgb(114,230,172);fill-rule:nonzero;"/>
        <g>
            <path d="M68.15,35.57C68.16,35.15 68.42,34.75 68.71,34.44C69,34.12 69.35,33.86 69.72,33.64C70.09,33.42 70.47,33.25 70.86,33.08C71.25,32.95 71.65,32.8 72.05,32.7C73.66,32.28 75.29,32.16 76.9,32.18C78.51,32.22 80.14,32.4 81.73,32.88C82.52,33.11 83.3,33.44 84.02,33.92C84.37,34.17 84.72,34.44 84.97,34.81C85.23,35.16 85.39,35.63 85.28,36.03C85.03,35.24 84.28,34.99 83.6,34.77C82.9,34.56 82.15,34.46 81.41,34.37C79.92,34.22 78.4,34.19 76.87,34.18C75.34,34.2 73.82,34.17 72.32,34.28C71.57,34.33 70.83,34.4 70.11,34.57C69.75,34.64 69.39,34.75 69.06,34.9C68.72,35.05 68.38,35.23 68.15,35.57Z" style="fill:rgb(51,172,113);fill-rule:nonzero;"/>
        </g>
        <path d="M87.82,4.7C83.87,3.64 80.66,4.75 79.76,7.31L70.69,37.83C70.69,37.83 72.54,38.79 78.11,38.79C82.66,38.79 85.14,36.54 85.14,36.54C85.14,36.54 92.21,11.54 92.5,10.56C93.17,8.32 91.26,5.63 87.82,4.7Z" style="fill:rgb(179,157,219);fill-rule:nonzero;"/>
        <path d="M81.31,7.64C81.88,5.8 84.56,4.95 87.3,5.74C90.04,6.53 91.79,8.68 91.22,10.52C90.65,12.36 87.97,13.21 85.23,12.42C82.49,11.63 80.74,9.49 81.31,7.64Z" style="fill:rgb(122,87,184);fill-rule:nonzero;"/>
    </g>
</svg>
